X:1
T:Title
%%score { ( 1 3 ) | ( 2 4 ) }
L:1/8
Q:1/4=100
M:4/4
K:G
V:1 treble nm="Grand Piano"
V:3 treble 
V:2 treble 
V:4 treble 
V:1
 G3 A Bd d>e | d4 B4 | [FA]3 [GB] [Ac][FA] [Bd]>[Ac] | B6 z2 | B3 B [AB][AB] [Ge]>[EGB] | %5
w: Mrs.~C.~H.~Morris * * * * *|||||
 [EBd]4 [EAc]2 [DEB]>[CEA] | [B,DG]2 [B,D]2 [DGB]3 [CFA] | [B,G]6 z2 | [DF]4 [FA]2 [Fc]2 | z4 G4 | %10
w: |||||
 [DB]3 c d2 G2 | c2 B2 [DA]2- [D-EA-][DFA] | [B,DG]3 [B,DG] [FA]2 [FA]2 | [GB]3 [=Fd] [Ed]2 [Ec]2 | %14
w: ||||
 B3 G c2 B2 | A3 [B,G] [B,G]4 |] %16
w: ||
V:2
 [G,B,]3 [G,CG] [G,DG][G,B,G] [G,B,G]>[G,CG] | [G,B,G]4 [G,DG]4 | %2
 [D,D]3 [D,D] [D,D][D,D] [D,D]>[D,D] | [G,DG]6 z2 | [G,DG]3 [G,DG][K:bass] [F,^D][F,D] [E,B,]>E, | %5
 A,4 A,2 C,>C, | D,2 D,2 D,3 D, | G,6 z2 | D,D,D,D, D,D,[D,A,]D, | D4 D4 | %10
 G,G,G,[K:treble][G,A,D] [G,B,G]2 [B,D]2 | [A,DF]2 [G,DG]2[K:bass] z C^C=C | %12
 G,,3 G,, [D,D]2 [D,D]2 | [G,D]3 [B,,G,] [C,G,]2 [C,G,]2 | [D,G,D]3 [D,B,D] [D,A,D]2 [D,G,D]2 | %15
 [D,F,C]3 [G,,G,] [G,,D,]4 |] %16
V:3
 x8 | x8 | x8 | x8 | x8 | x8 | x8 | x8 | A,A,A,[B,DG] CC z A, | B3 A z2 B,2 | x8 | z4 F4 | x8 | %13
 x8 | x8 | x8 |] %16
V:4
 x8 | x8 | x8 | x8 | x4[K:bass] x4 | x8 | x8 | x8 | x8 | G,3 [G,C] [G,B,]2 G,2 | x3[K:treble] x5 | %11
 z4[K:bass] D,4 | x8 | x8 | x8 | x8 |] %16

